packages/assets/static/images/icons/linkedin-logo.svg

<svg width="24" height="24" viewBox="0 0 24 24" xmlns="http://www.w3.org/2000/svg">
<path d="M20.75 1.875H4.25C3.75272 1.875 3.27581 2.07254 2.92417 2.42417C2.57254 2.77581 2.375 3.25272 2.375 3.75V20.25C2.375 20.7473 2.57254 21.2242 2.92417 21.5758C3.27581 21.9275 3.75272 22.125 4.25 22.125H20.75C21.2473 22.125 21.7242 21.9275 22.0758 21.5758C22.4275 21.2242 22.625 20.7473 22.625 20.25V3.75C22.625 3.25272 22.4275 2.77581 22.0758 2.42417C21.7242 2.07254 21.2473 1.875 20.75 1.875ZM20.375 19.875H4.625V4.125H20.375V19.875ZM11 16.5V11.25C11.0002 11.0162 11.0733 10.7883 11.209 10.5979C11.3447 10.4076 11.5364 10.2642 11.7574 10.1878C11.9783 10.1114 12.2176 10.1058 12.4419 10.1716C12.6662 10.2375 12.8645 10.3716 13.0091 10.5553C13.5805 10.2558 14.2195 10.1088 14.8643 10.1284C15.5092 10.1481 16.1381 10.3338 16.6901 10.6676C17.2422 11.0014 17.6989 11.472 18.0159 12.0338C18.333 12.5957 18.4997 13.2299 18.5 13.875V16.5C18.5 16.7984 18.3815 17.0845 18.1705 17.2955C17.9595 17.5065 17.6734 17.625 17.375 17.625C17.0766 17.625 16.7905 17.5065 16.5795 17.2955C16.3685 17.0845 16.25 16.7984 16.25 16.5V13.875C16.25 13.4772 16.092 13.0956 15.8107 12.8143C15.5294 12.533 15.1478 12.375 14.75 12.375C14.3522 12.375 13.9706 12.533 13.6893 12.8143C13.408 13.0956 13.25 13.4772 13.25 13.875V16.5C13.25 16.7984 13.1315 17.0845 12.9205 17.2955C12.7095 17.5065 12.4234 17.625 12.125 17.625C11.8266 17.625 11.5405 17.5065 11.3295 17.2955C11.1185 17.0845 11 16.7984 11 16.5ZM9.5 11.25V16.5C9.5 16.7984 9.38147 17.0845 9.1705 17.2955C8.95952 17.5065 8.67337 17.625 8.375 17.625C8.07663 17.625 7.79048 17.5065 7.5795 17.2955C7.36853 17.0845 7.25 16.7984 7.25 16.5V11.25C7.25 10.9516 7.36853 10.6655 7.5795 10.4545C7.79048 10.2435 8.07663 10.125 8.375 10.125C8.67337 10.125 8.95952 10.2435 9.1705 10.4545C9.38147 10.6655 9.5 10.9516 9.5 11.25ZM6.875 7.5C6.875 7.20333 6.96297 6.91332 7.1278 6.66665C7.29262 6.41997 7.52689 6.22771 7.80097 6.11418C8.07506 6.00065 8.37666 5.97094 8.66764 6.02882C8.95861 6.0867 9.22588 6.22956 9.43566 6.43934C9.64544 6.64912 9.7883 6.91639 9.84618 7.20736C9.90406 7.49834 9.87435 7.79994 9.76082 8.07403C9.64729 8.34811 9.45503 8.58238 9.20835 8.7472C8.96168 8.91203 8.67167 9 8.375 9C7.97718 9 7.59564 8.84196 7.31434 8.56066C7.03304 8.27936 6.875 7.89782 6.875 7.5Z"/>
</svg>

<svg viewBox="0 0 24 24" xmlns="http://www.w3.org/2000/svg" aria-hidden="true" fill="currentColor" height="24px" width="24px"><path d="M20.75 1.875H4.25A1.875 1.875 0 0 0 2.375 3.75v16.5a1.875 1.875 0 0 0 1.875 1.875h16.5a1.875 1.875 0 0 0 1.875-1.875V3.75a1.875 1.875 0 0 0-1.875-1.875m-.375 18H4.625V4.125h15.75zM11 16.5v-5.25a1.125 1.125 0 0 1 2.01-.695 3.75 3.75 0 0 1 5.49 3.32V16.5a1.125 1.125 0 1 1-2.25 0v-2.625a1.5 1.5 0 1 0-3 0V16.5a1.125 1.125 0 1 1-2.25 0m-1.5-5.25v5.25a1.125 1.125 0 0 1-2.25 0v-5.25a1.125 1.125 0 0 1 2.25 0M6.875 7.5a1.5 1.5 0 1 1 3 0 1.5 1.5 0 0 1-3 0"/></svg>
